X: 33040
T: Pride Of Petravore, The
R: hornpipe
M: 4/4
K: Eminor
|:E3F G3A|B>cB>A G<E E2|D3E F3G|A>BA>G F<D D2|
E3F G3A|B>cB>A G<E E2|B2Bc B>AG>F|E2 E2 E2 E2:|
|:e2 e2 e2 e2|d>BG>A B2 B2|cF F2 F2 F2|AE E2 E2 E2|
e2 ef g3f/e/|d>BG>A B2 GF|E>BB>c B>AG>F|E2 E2 E2 E2:|

